svg/u1f60f.svg

<svg viewBox="0 0 128 128" xmlns="http://www.w3.org/2000/svg">
  <g id="gold">
    <radialGradient id="face_1_" cx="63.6" cy="1104.9" gradientTransform="matrix(1 0 0 1 0 -1042)" gradientUnits="userSpaceOnUse" r="56.9597">
      <stop offset="0.5" stop-color="#FDE030"/>
      <stop offset="0.92" stop-color="#F7C02B"/>
      <stop offset="1" stop-color="#F4A223"/>
    </radialGradient>
    <path id="face" d="M63.6,118.8c-27.9,0-58-17.5-58-55.9S35.7,7,63.6,7c15.5,0,29.8,5.1,40.4,14.4 c11.5,10.2,17.6,24.6,17.6,41.5s-6.1,31.2-17.6,41.4C93.4,113.6,79,118.8,63.6,118.8z" fill="url(#face_1_)"/>
  </g>
  <g id="facial_expressions">
    <g id="unamused-face">
      <g id="eyes">
        <g id="eyebrows">
          <path d="M39.37,42.45c1.01,0,1.83-0.82,1.83-1.83c0-1.01-0.82-1.83-1.83-1.83 c-1.95-0.2-3.91-0.06-5.81,0.4c-5.17,1.11-9.73,4.14-12.77,8.47c-1.37,2.09,1.35,3.78,2.95,2.22c4.18-4.21,9.7-6.84,15.6-7.43 l0,0" fill="#422B0D"/>
        </g>
      </g>
    </g>
    <g id="smirking-face">
      <g id="mouth">
        <path d="M46.63,94.31c3.92-0.51,7.74-0.67,11.47-0.88s7.4-0.42,10.85-1c3.2-0.34,6.31-1.24,9.19-2.66 c2.42-1.29,4.18-3.54,4.86-6.19v-0.13c0.51-1.8,2.38-2.84,4.18-2.33c1.48,0.42,2.49,1.79,2.45,3.33c-0.05,2.45-0.69,4.85-1.87,7 c-1.23,2.21-2.95,4.11-5.03,5.55c-4,2.75-8.39,3.76-12.48,4.42c-3.98,0.52-7.99,0.7-12,0.53c-3.92-0.12-7.76-0.46-11.5-0.89l0,0 c-1.85-0.23-3.17-1.91-2.94-3.77c0.19-1.54,1.4-2.76,2.94-2.94L46.63,94.31z" fill="#35220B"/>
      </g>
      <g id="eyes-2">
        <g id="peepers">
          <path d="M48.16,55.81c-6.05-1.58-12.44-1.34-18.36,0.69c-1.06,0.41-1.59,1.59-1.18,2.65 c0.38,0.99,1.44,1.52,2.46,1.24c2.37-0.46,4.79-0.59,7.2-0.4c0,0.06,0,0.39,0,0.39c0,4.89,3.17,7.85,6.67,7.85 c1.79-0.02,3.5-0.76,4.74-2.06c2.08-2.21,2.51-5.51,1.05-8.17C50.19,56.97,49.27,56.18,48.16,55.81z" fill="#422B0D"/>
          <path d="M96,55.81c-6.05-1.58-12.44-1.34-18.36,0.69c-1.07,0.38-1.64,1.55-1.26,2.62s1.55,1.64,2.62,1.26 l0,0c2.37-0.46,4.79-0.59,7.19-0.4c0,0.06,0,0.39,0,0.39c0,4.89,3.18,7.85,6.67,7.85c1.8-0.02,3.51-0.76,4.75-2.06 c2.05-2.21,2.45-5.49,1-8.13C98.06,56.99,97.12,56.19,96,55.81z" fill="#422B0D"/>
        </g>
      </g>
    </g>
    <g id="peepers-2">
      <path d="M45.06,59.18L45.06,59.18c1.42-0.68,3.13-0.08,3.82,1.34c0.53,1.11,0.29,2.44-0.6,3.3l0,0 c-1.42,0.68-3.13,0.08-3.82-1.34C43.93,61.37,44.17,60.04,45.06,59.18z" fill="#896024"/>
    </g>
    <g id="peepers-3">
      <path d="M93.06,59.18L93.06,59.18c1.43-0.67,3.13-0.06,3.81,1.37c0.52,1.11,0.28,2.42-0.6,3.27l0,0 c-1.43,0.67-3.13,0.06-3.81-1.37C91.94,61.35,92.18,60.03,93.06,59.18z" fill="#896024"/>
    </g>
    <path d="M111.49,29.67c5.33,8.6,8.11,18.84,8.11,30.23c0,16.9-6.1,31.2-17.6,41.4 c-10.6,9.3-25,14.5-40.4,14.5c-18.06,0-37-7.35-48.18-22.94c10.76,17.66,31,25.94,50.18,25.94c15.4,0,29.8-5.2,40.4-14.5 c11.5-10.2,17.6-24.5,17.6-41.4C121.6,50.16,118.13,38.84,111.49,29.67z" fill="#EB8F00"/>
    <path d="M88.22,42.45c-1.01,0-1.83-0.82-1.83-1.83c0-1.01,0.82-1.83,1.83-1.83c1.95-0.2,3.91-0.06,5.81,0.4 c5.17,1.11,9.74,4.13,12.77,8.47c1.37,2.09-1.35,3.78-3,2.22c-4.18-4.21-9.69-6.84-15.6-7.43l0,0" fill="#422B0D"/>
  </g>
</svg>

<svg viewBox="0 0 128 128" xmlns="http://www.w3.org/2000/svg">
  <defs>
    <radialGradient id="face_1_" cx="63.6" cy="62.9" gradientUnits="userSpaceOnUse" r="56.9597">
      <stop offset="0.5" stop-color="#FDE030"/>
      <stop offset="0.92" stop-color="#F7C02B"/>
      <stop offset="1" stop-color="#F4A223"/>
    </radialGradient>
  </defs>
  <path id="face" d="M63.6,118.8 C35.7,118.8 5.6,101.3 5.6,62.9 C5.6,24.5 35.7,7 63.6,7 C79.1,7 93.4,12.1 104,21.4 C115.5,31.6 121.6,46 121.6,62.9 C121.6,79.8 115.5,94.1 104,104.3 C93.4,113.6 79,118.8 63.6,118.8 Z" fill="url(#face_1_)"/>
  <path d="M39.37,42.45 C40.38,42.45 41.2,41.63 41.2,40.62 C41.2,39.61 40.38,38.79 39.37,38.79 C37.42,38.59 35.46,38.73 33.56,39.19 C28.39,40.3 23.83,43.33 20.79,47.66 C19.42,49.75 22.14,51.44 23.74,49.88 C27.92,45.67 33.44,43.04 39.34,42.45 L39.34,42.45" fill="#422B0D"/>
  <path d="M46.63,94.31 C50.55,93.8 54.37,93.64 58.1,93.43 C61.83,93.22 65.5,93.01 68.95,92.43 C72.15,92.09 75.26,91.19 78.14,89.77 C80.56,88.48 82.32,86.23 83,83.58 L83,83.45 C83.51,81.65 85.38,80.61 87.18,81.12 C88.66,81.54 89.67,82.91 89.63,84.45 C89.58,86.9 88.94,89.3 87.76,91.45 C86.53,93.66 84.81,95.56 82.73,97 C78.73,99.75 74.34,100.76 70.25,101.42 C66.27,101.94 62.26,102.12 58.25,101.95 C54.33,101.83 50.49,101.49 46.75,101.06 L46.75,101.06 C44.9,100.83 43.58,99.15 43.81,97.29 C44,95.75 45.21,94.53 46.75,94.35 L46.63,94.31 Z" fill="#35220B"/>
  <path d="M48.16,55.81 C42.11,54.23 35.72,54.47 29.8,56.5 C28.74,56.91 28.21,58.09 28.62,59.15 C29,60.14 30.06,60.67 31.08,60.39 C33.45,59.93 35.87,59.8 38.28,59.99 C38.28,60.05 38.28,60.38 38.28,60.38 C38.28,65.27 41.45,68.23 44.95,68.23 C46.74,68.21 48.45,67.47 49.69,66.17 C51.77,63.96 52.2,60.66 50.74,58 C50.19,56.97 49.27,56.18 48.16,55.81 Z" fill="#422B0D"/>
  <path d="M96,55.81 C89.95,54.23 83.56,54.47 77.64,56.5 C76.57,56.88 76,58.05 76.38,59.12 C76.76,60.19 77.93,60.76 79,60.38 L79,60.38 C81.37,59.92 83.79,59.79 86.19,59.98 C86.19,60.04 86.19,60.37 86.19,60.37 C86.19,65.26 89.37,68.22 92.86,68.22 C94.66,68.2 96.37,67.46 97.61,66.16 C99.66,63.95 100.06,60.67 98.61,58.03 C98.06,56.99 97.12,56.19 96,55.81 Z" fill="#422B0D"/>
  <path d="M45.06,59.18 L45.06,59.18 C46.48,58.5 48.19,59.1 48.88,60.52 C49.41,61.63 49.17,62.96 48.28,63.82 L48.28,63.82 C46.86,64.5 45.15,63.9 44.46,62.48 C43.93,61.37 44.17,60.04 45.06,59.18 Z" fill="#896024"/>
  <path d="M93.06,59.18 L93.06,59.18 C94.49,58.51 96.19,59.12 96.87,60.55 C97.39,61.66 97.15,62.97 96.27,63.82 L96.27,63.82 C94.84,64.49 93.14,63.88 92.46,62.45 C91.94,61.35 92.18,60.03 93.06,59.18 Z" fill="#896024"/>
  <path d="M111.49,29.67 C116.82,38.27 119.6,48.51 119.6,59.9 C119.6,76.8 113.5,91.1 102,101.3 C91.4,110.6 77,115.8 61.6,115.8 C43.54,115.8 24.6,108.45 13.42,92.86 C24.18,110.52 44.42,118.8 63.6,118.8 C79,118.8 93.4,113.6 104,104.3 C115.5,94.1 121.6,79.8 121.6,62.9 C121.6,50.16 118.13,38.84 111.49,29.67 Z" fill="#EB8F00"/>
  <path d="M88.22,42.45 C87.21,42.45 86.39,41.63 86.39,40.62 C86.39,39.61 87.21,38.79 88.22,38.79 C90.17,38.59 92.13,38.73 94.03,39.19 C99.2,40.3 103.77,43.32 106.8,47.66 C108.17,49.75 105.45,51.44 103.8,49.88 C99.62,45.67 94.11,43.04 88.2,42.45 L88.2,42.45" fill="#422B0D"/>
</svg>
